X: 39346
T: Tam Lin
R: reel
M: 4/4
K: Dminor
^G,2|:A,2DA, FA,DA,|B,2DB, FB,DB,|C2EC GCEC|FEDC DCA,^G,|
A,2DA, FA,DA,|B,2DB, FB,DB,|C2EC GCEC|1 FEDC D2 ^G,2:|2 FEDC D2 D2||
|:d2 AF DEFG|Ad ~d2 efed|=Bc ~c2 GFED|CDEF GECE|
Ad ~d2 AF ~F2|DEFG AGFD|B,3C DEFD|1 EDCE D2 D2:|2 EDCE D2||

